public/static/img/trade/ipo_detail_success.svg

<svg width="60" height="60" viewBox="0 0 60 60" fill="none" xmlns="http://www.w3.org/2000/svg">
<rect width="60" height="60" rx="16" fill="#18B762" fill-opacity="0.1"/>
<path d="M30.59 18.1062L36.3146 12.3869C32.0366 10.705 27.3098 10.548 22.9297 11.9424C18.5495 13.3368 14.7834 16.1975 12.2651 20.043C9.74675 23.8885 8.62996 28.4842 9.10263 33.0565C9.5753 37.6289 11.6086 41.8989 14.8603 45.148C18.1121 48.397 22.3837 50.4268 26.9565 50.8956C31.5293 51.3645 36.124 50.2439 39.9674 47.7224C43.8109 45.2009 46.6684 41.4324 48.0592 37.0511C49.45 32.6698 49.2891 27.9432 47.6036 23.6666L41.8884 29.3818C42.2273 32.0698 41.718 34.7966 40.4317 37.1811C39.1453 39.5655 37.1462 41.4885 34.7136 42.6814C32.2811 43.8743 29.5366 44.2774 26.8638 43.8344C24.1909 43.3914 21.7233 42.1245 19.8056 40.2107C17.8879 38.2968 16.616 35.8317 16.1676 33.1598C15.7193 30.4878 16.1169 27.7426 17.3049 25.3076C18.4929 22.8726 20.4119 20.8696 22.7937 19.5785C25.1756 18.2874 27.9013 17.7726 30.59 18.1062Z" fill="#18B762"/>
<path d="M27.2445 26.2222C26.7845 26.6444 26.4147 27.1553 26.1573 27.7242C25.9 28.2931 25.7605 28.9082 25.7471 29.5325C25.7337 30.1567 25.8468 30.7772 26.0796 31.3566C26.3123 31.936 26.6599 32.4623 27.1015 32.9038C27.543 33.3453 28.0693 33.6929 28.6486 33.9257C29.228 34.1584 29.8485 34.2715 30.4728 34.2581C31.097 34.2448 31.7121 34.1052 32.281 33.8479C32.8499 33.5906 33.3608 33.2208 33.783 32.7608L37.7128 28.831C38.1876 30.7408 38.0232 32.7536 37.2447 34.561C36.4663 36.3684 35.1168 37.8708 33.4029 38.838C31.689 39.8052 29.7053 40.1838 27.7557 39.9158C25.806 39.6479 23.998 38.7482 22.6086 37.3545C21.2192 35.9608 20.325 34.15 20.063 32.1996C19.801 30.2492 20.1857 28.2666 21.1581 26.5557C22.1305 24.8448 23.637 23.4999 25.4468 22.727C27.2566 21.954 29.2699 21.7958 31.1783 22.2764L27.2445 26.2222Z" fill="#18B762"/>
<path d="M47.2579 18.3584L48.9512 16.6838C48.9727 16.6616 48.9871 16.6336 48.9928 16.6033C48.9985 16.5731 48.9951 16.5418 48.9832 16.5134C48.9713 16.4849 48.9512 16.4607 48.9256 16.4435C48.9 16.4264 48.87 16.4171 48.8391 16.4169H43.7284C43.6873 16.4169 43.648 16.4006 43.6189 16.3715C43.5899 16.3425 43.5736 16.3031 43.5736 16.2621V11.1553C43.5746 11.124 43.5659 11.0931 43.5488 11.0668C43.5317 11.0405 43.5069 11.0201 43.4778 11.0083C43.4487 10.9965 43.4168 10.9939 43.3862 11.0009C43.3556 11.0079 43.3278 11.024 43.3067 11.0472L35.7941 18.6346L34.0593 20.4361C33.9462 20.5533 33.8826 20.7096 33.8819 20.8724V24.1764C33.8818 24.258 33.8655 24.3387 33.8338 24.4139L29.944 28.301C29.7124 28.5332 29.5823 28.8478 29.5823 29.1757C29.5823 29.5037 29.7124 29.8183 29.944 30.0504C30.0586 30.1654 30.1947 30.2566 30.3446 30.3188C30.4945 30.381 30.6551 30.4131 30.8174 30.4131C30.9797 30.4131 31.1404 30.381 31.2902 30.3188C31.4401 30.2566 31.5762 30.1654 31.6908 30.0504L34.6411 27.0987C34.6656 27.0925 34.6906 27.0889 34.7159 27.0881L35.4498 26.3541C35.5656 26.2385 35.7224 26.1732 35.8861 26.1727H39.1914C39.2723 26.1735 39.3525 26.1582 39.4274 26.1278C39.5024 26.0973 39.5705 26.0522 39.6278 25.9952L47.2152 18.4839C47.2319 18.4676 47.2446 18.4477 47.2522 18.4257C47.2599 18.4037 47.2623 18.3802 47.2592 18.3571L47.2579 18.3584Z" fill="#18B762"/>
</svg>

<svg width="60" height="60" fill="none" xmlns="http://www.w3.org/2000/svg"><rect width="60" height="60" rx="16" fill="#18B762" fill-opacity=".1"/><path d="m30.59 18.106 5.725-5.72a20 20 0 1 0 11.289 11.28l-5.716 5.716A13.002 13.002 0 1 1 30.59 18.106Z" fill="#18B762"/><path d="M27.244 26.222a4.628 4.628 0 1 0 6.539 6.539l3.93-3.93a8.997 8.997 0 1 1-6.535-6.555l-3.934 3.946Z" fill="#18B762"/><path d="m47.258 18.358 1.693-1.674a.157.157 0 0 0-.112-.267h-5.11a.155.155 0 0 1-.155-.155v-5.107a.153.153 0 0 0-.267-.108l-7.513 7.588-1.735 1.801a.632.632 0 0 0-.177.436v3.304a.613.613 0 0 1-.048.238l-3.89 3.887a1.239 1.239 0 0 0 .873 2.112 1.233 1.233 0 0 0 .874-.363l2.95-2.951a.35.35 0 0 1 .075-.01l.734-.735a.62.62 0 0 1 .436-.181h3.305a.611.611 0 0 0 .437-.178l7.587-7.511a.15.15 0 0 0 .044-.127l-.001.001Z" fill="#18B762"/></svg>
